X: 23695
T: Lisa O'Leary's
R: polka
M: 2/4
K: Gmajor
|:B/A/|"G"G>A Bd|ed Bd|"C"e/f/g/e/ "G"dB|"Am"c/B/A/G/ "D"FD|
"G"GF/G/ "D"AG/A/|"G"Bd ed|gB G/A/B/G/|"D"AG "G"G:|
|:B/c/|"G"d>g dB|"C"cd ed/c/|"G"Bd ga|"A"ba "D"a/g/f/e/|
"G"dd/c/ "Em"BB/A/|"C"GE EG/E/|"G"DG "D"A/G/A/B/|AG "G"G:|

